kora-light-panel/panel/16/indicator-lunar-satelite.svg

<svg xmlns="http://www.w3.org/2000/svg" width="16" height="16" version="1.1">
 <defs>
  <style id="current-color-scheme" type="text/css">
   .ColorScheme-Text { color:#444444; } .ColorScheme-Highlight { color:#4285f4; }
  </style>
 </defs>
 <path style="fill:currentColor" class="ColorScheme-Text" d="M 4.2933,1 3.1038,2.1906 4.2933,3.3812 5.4828,2.1906 Z M 13.624,1.1677 A 1.2618,1.263 0 0 0 12.362,2.4307 1.2618,1.263 0 0 0 13.624,3.6937 1.2618,1.263 0 0 0 14.886,2.4307 1.2618,1.263 0 0 0 13.624,1.1677 Z M 2.5092,2.7859 1.318,3.9766 2.5092,5.1671 3.6986,3.9766 Z M 6.0777,2.7859 4.8882,3.9766 6.0777,5.1671 7.2672,3.9766 Z M 11.769,3.3944 11.074,4.09 11.966,4.983 12.661,4.2873 C 12.28,4.0869 11.97,3.7762 11.769,3.3944 Z M 9.0023,3.4421 3.9254,8.5239 C 4.7134,8.8321 5.4518,9.3162 6.0777,9.9427 6.7025,10.57 7.1857,11.307 7.4939,12.096 L 12.571,7.0126 Z M 4.2934,4.5719 3.1039,5.7624 4.2934,6.9528 5.4829,5.7624 Z M 12.025,8.7454 10.835,9.9376 12.025,11.128 13.215,9.9376 Z M 1.8951,8.9626 C 1.7137,8.9668 1.533,8.9811 1.3545,9.0106 A 0.42064,0.42103 0 0 0 1.1245,9.7254 L 6.2686,14.875 A 0.42064,0.42103 0 0 0 6.9833,14.644 C 7.214,13.216 6.6273,11.663 5.4833,10.515 4.4803,9.5116 3.1648,8.9357 1.8951,8.9626 Z M 10.241,10.533 9.0519,11.723 10.241,12.914 11.431,11.723 Z M 13.811,10.533 12.62,11.723 13.811,12.914 15,11.723 Z M 12.026,12.319 10.836,13.509 12.026,14.7 13.216,13.509 Z"/>
</svg>

<svg xmlns="http://www.w3.org/2000/svg" width="16" height="16" viewBox="0 0 16 16">
 <defs>
  <style id="current-color-scheme" type="text/css">
   .ColorScheme-Text { color:#444444; } .ColorScheme-Highlight { color:#4285f4; } .ColorScheme-NeutralText { color:#ff9800; } .ColorScheme-PositiveText { color:#4caf50; } .ColorScheme-NegativeText { color:#f44336; }
  </style>
 </defs>
 <path style="opacity:0.3;fill:currentColor" class="ColorScheme-Text" d="m9.002 3.442-5.077 5.082c.788.308 1.527.792 2.153 1.419.624.627 1.108 1.364 1.416 2.153l5.077-5.083z"/>
 <path style="fill:currentColor" class="ColorScheme-Text" d="m1.895 8.963c-.181.004-.362.018-.541.048-.203.032-.354.209-.354.415 0 .113.045.22.125.299 1.079 2.353 2.794 4.068 5.144 5.15.079.08.186.125.299.125.206 0 .383-.152.415-.356.231-1.428-.356-2.981-1.5-4.129-1.003-1.003-2.318-1.579-3.588-1.552zm10.131 3.356-1.19 1.19 1.19 1.191 1.19-1.191zm-1.785-1.786-1.189 1.19 1.189 1.191 1.19-1.191zm3.57 0-1.191 1.19 1.191 1.191 1.189-1.191zm-1.786-1.788-1.19 1.193 1.19 1.19 1.19-1.19zm-7.732-4.173-1.189 1.19 1.189 1.191 1.19-1.191zm7.102-.851-.695.696.892.893.695-.696c-.381-.2-.691-.511-.892-.893zm-5.317-.935-1.19 1.191 1.19 1.19 1.189-1.19zm-3.569 0-1.191 1.191 1.191 1.19 1.19-1.19zm10.982-2.022h-.001c-.961 0-1.752.792-1.752 1.753 0 .962.791 1.754 1.752 1.754h.001c.961 0 1.752-.792 1.752-1.754 0-.961-.791-1.753-1.752-1.753zm-9.198.236-1.189 1.191 1.189 1.19 1.19-1.19z"/>
</svg>
